public/images/icons/32x32/more_32_white.svg

<svg height="32" viewBox="0 0 32 32" width="32" xmlns="http://www.w3.org/2000/svg"><g fill="none" fill-rule="evenodd" transform="translate(7 7)"><circle cx="9" cy="9" r="9" stroke="#fff"/><path d="m13.6763636 8.33818182c.2327285 0 .4290901.07636287.5890909.22909091.1600008.15272803.24.34545338.24.57818182 0 .23272843-.0799992.42545378-.24.57818181-.1600008.15272804-.3563624.22909091-.5890909.22909091h-3.68727269v3.68727273c0 .2327284-.07636287.4290901-.22909091.5890909s-.34545338.24-.57818182.24c-.23272843 0-.42545378-.0799992-.57818182-.24-.15272803-.1600008-.22909091-.3563625-.22909091-.5890909v-3.68727273h-3.68727272c-.23272844 0-.42909011-.0799992-.58909091-.24s-.24-.34908982-.24-.56727272c0-.23272844.0799992-.42545379.24-.57818182.1600008-.15272804.35636247-.22909091.58909091-.22909091h3.68727272v-3.68727273c0-.23272844.07636288-.42909011.22909091-.58909091.15272804-.1600008.34545339-.24.57818182-.24.23272844 0 .42545378.0799992.57818182.24s.22909091.35636247.22909091.58909091v3.68727273z" fill="#fff" fill-rule="nonzero"/></g></svg>

<svg xmlns="http://www.w3.org/2000/svg" width="32" height="32" viewBox="0 0 32 32">
  <g fill="none" fill-rule="evenodd" transform="translate(7 7)">
    <circle cx="9" cy="9" r="9" stroke="#FFF"/>
    <path fill="#FFF" fill-rule="nonzero" d="M13.6763636,8.33818182 C13.9090921,8.33818182 14.1054537,8.41454469 14.2654545,8.56727273 C14.4254553,8.72000076 14.5054545,8.91272611 14.5054545,9.14545455 C14.5054545,9.37818298 14.4254553,9.57090833 14.2654545,9.72363636 C14.1054537,9.8763644 13.9090921,9.95272727 13.6763636,9.95272727 L9.98909091,9.95272727 L9.98909091,13.64 C9.98909091,13.8727284 9.91272804,14.0690901 9.76,14.2290909 C9.60727196,14.3890917 9.41454662,14.4690909 9.18181818,14.4690909 C8.94908975,14.4690909 8.7563644,14.3890917 8.60363636,14.2290909 C8.45090833,14.0690901 8.37454545,13.8727284 8.37454545,13.64 L8.37454545,9.95272727 L4.68727273,9.95272727 C4.45454429,9.95272727 4.25818262,9.87272807 4.09818182,9.71272727 C3.93818102,9.55272647 3.85818182,9.36363745 3.85818182,9.14545455 C3.85818182,8.91272611 3.93818102,8.72000076 4.09818182,8.56727273 C4.25818262,8.41454469 4.45454429,8.33818182 4.68727273,8.33818182 L8.37454545,8.33818182 L8.37454545,4.65090909 C8.37454545,4.41818065 8.45090833,4.22181898 8.60363636,4.06181818 C8.7563644,3.90181738 8.94908975,3.82181818 9.18181818,3.82181818 C9.41454662,3.82181818 9.60727196,3.90181738 9.76,4.06181818 C9.91272804,4.22181898 9.98909091,4.41818065 9.98909091,4.65090909 L9.98909091,8.33818182 L13.6763636,8.33818182 Z"/>
  </g>
</svg>
